svgs/flashdim.svg

<svg width="192" height="192" viewBox="0 0 192 192" fill="none" xmlns="http://www.w3.org/2000/svg">
<path d="M114.07 107.627V171H78.187V107.627L66.7673 88.5958V70.3333H125.49V88.5958L114.07 107.627Z" stroke="black" stroke-width="10" stroke-linejoin="round"/>
<path d="M128.635 49.8855H63.6215C62.1737 49.8855 61 51.0592 61 52.507V56.7014C61 58.1492 62.1737 59.323 63.6215 59.323H128.635C130.084 59.323 131.257 58.1492 131.257 56.7014V52.507C131.257 51.0592 130.084 49.8855 128.635 49.8855Z" fill="black" stroke="black"/>
<path d="M81.448 40.9723V34.6806" stroke="black" stroke-width="8" stroke-miterlimit="2.09709" stroke-linecap="round" stroke-linejoin="round"/>
<path d="M96.1284 40.9722V27.3403" stroke="black" stroke-width="8" stroke-miterlimit="2.09709" stroke-linecap="round" stroke-linejoin="round"/>
<path d="M110.809 40.9722V20" stroke="black" stroke-width="8" stroke-miterlimit="2.09709" stroke-linecap="round" stroke-linejoin="round"/>
<path d="M96.1284 118.569V133.774" stroke="black" stroke-width="8" stroke-linecap="round" stroke-linejoin="round"/>
</svg>

<svg width="192" height="192" viewBox="0 0 192 192" fill="none" xmlns="http://www.w3.org/2000/svg"><path d="M114.07 107.627V171H78.187v-63.373l-11.42-19.031V70.333h58.723v18.263l-11.42 19.031Z" stroke="#000" stroke-width="10" stroke-linejoin="round"/><path d="M128.635 49.886H63.622A2.622 2.622 0 0 0 61 52.507v4.194a2.622 2.622 0 0 0 2.621 2.622h65.014a2.621 2.621 0 0 0 2.622-2.622v-4.194a2.621 2.621 0 0 0-2.622-2.621Z" fill="#000" stroke="#000"/><path d="M81.448 40.972v-6.291M96.128 40.972V27.34M110.809 40.972V20" stroke="#000" stroke-width="8" stroke-miterlimit="2.097" stroke-linecap="round" stroke-linejoin="round"/><path d="M96.128 118.569v15.205" stroke="#000" stroke-width="8" stroke-linecap="round" stroke-linejoin="round"/></svg>
